images/logo/omari-2.svg

<svg enable-background="new 0 0 1000 1000" viewBox="0 0 1000 1000" xmlns="http://www.w3.org/2000/svg"><path d="m534.7 322 195.3-111.4-131.7-162.3-26.7 21.8 106.2 130.6-177.8 101.6-177.9-101.6 106.2-130.6-26.7-21.8-131.7 162.3 195.4 111.4-213.9 122.1v259.1l227.7 248.5v-465h-34.3v376.6l-159-173.4v-225.8l214.2-122.2 214.2 122.2v225.8l-159 173.4v-376.6h-34.3v465l227.7-248.5v-259.1z" fill="#c24242"/></svg>

<?xml version="1.0" encoding="utf-8"?>
<!-- Generator: Adobe Illustrator 23.0.3, SVG Export Plug-In . SVG Version: 6.00 Build 0)  -->
<svg version="1.1" id="Layer_1" xmlns="http://www.w3.org/2000/svg" xmlns:xlink="http://www.w3.org/1999/xlink" x="0px" y="0px"
	 viewBox="0 0 1000 1000" style="enable-background:new 0 0 1000 1000;" xml:space="preserve">
<style type="text/css">
	.st0{fill:#C24242;}
</style>
<path class="st0" d="M534.7,322l195.3-111.4L598.3,48.3l-26.7,21.8l106.2,130.6L500,302.3L322.1,200.7L428.3,70.1l-26.7-21.8
	L269.9,210.6L465.3,322L251.4,444.1v259.1l227.7,248.5v-465h-34.3v376.6L285.8,689.9V464.1L500,341.9l214.2,122.2v225.8L555.2,863.3
	V486.7h-34.3v465l227.7-248.5V444.1L534.7,322z"/>
</svg>
